X:644
M:C|
L:1/8
K:F
~F2 FB AB/c/ AF|~F2 FA BGGA|~F2 FA cAcA|BGEG AFF||
f|afaf bgbg|afaf ec ~c2|afaf bgbg|afcb af ~f2|afaf bgbg|afaf ecec|
dBdB cAcA|BGEc AF ~F2||

